wp-content/plugins/one-click-demo-import/assets/images/error.svg

<svg width="124" height="124" viewBox="0 0 124 124" fill="none" xmlns="http://www.w3.org/2000/svg">
<path d="M62 0C27.75 0 0 27.75 0 62C0 96.25 27.75 124 62 124C96.25 124 124 96.25 124 62C124 27.75 96.25 0 62 0ZM116 62C116 91.75 91.75 116 62 116C32.25 116 8 92 8 62C8 32.5 32 8 62 8C91.5 8 116 32.25 116 62Z" fill="#DB3232"/>
<path d="M73.7413 61.9128L92.5639 43.2645L92.5705 43.258C94.4765 41.3519 94.4765 38.0231 92.5705 36.117L87.883 31.4295C85.9769 29.5235 82.6481 29.5235 80.742 31.4295L80.742 31.4295L80.7355 31.4361L62.0872 50.2587L43.258 31.4295C41.3519 29.5235 38.0231 29.5235 36.117 31.4295L31.4295 36.117C29.5235 38.0231 29.5235 41.3519 31.4295 43.258L31.4295 43.258L31.4361 43.2645L50.2587 61.9128L31.4295 80.742C29.5235 82.6481 29.5235 85.9769 31.4295 87.883L36.117 92.5705C38.0231 94.4765 41.3519 94.4765 43.258 92.5705L62.0872 73.7413L80.7355 92.5639L80.742 92.5705C82.6481 94.4765 85.9769 94.4765 87.883 92.5705L92.5705 87.883C94.4765 85.9769 94.4765 82.6481 92.5705 80.742L73.7413 61.9128Z" fill="#DB3232" stroke="white" stroke-width="4"/>
</svg>

<svg xmlns="http://www.w3.org/2000/svg" width="124" height="124" fill="none"><path fill="#DB3232" d="M62 0C27.75 0 0 27.75 0 62s27.75 62 62 62 62-27.75 62-62S96.25 0 62 0m54 62c0 29.75-24.25 54-54 54S8 92 8 62C8 32.5 32 8 62 8c29.5 0 54 24.25 54 54"/><path fill="#DB3232" stroke="#fff" stroke-width="4" d="m73.741 61.913 18.823-18.648.007-.007c1.906-1.906 1.906-5.235 0-7.141l-4.688-4.687c-1.906-1.907-5.235-1.907-7.141 0l-.007.006L62.088 50.26 43.259 31.43c-1.906-1.905-5.235-1.905-7.141 0l-4.687 4.688c-1.907 1.906-1.907 5.235 0 7.141l.006.006L50.26 61.914 31.43 80.743c-1.905 1.906-1.905 5.235 0 7.141l4.688 4.688c1.906 1.906 5.235 1.906 7.141 0l18.83-18.83 18.648 18.823.006.007c1.906 1.906 5.235 1.906 7.141 0l4.688-4.688c1.906-1.906 1.906-5.235 0-7.141z"/></svg>
